src/assets/chickenR.svg

<svg width="48" height="77" viewBox="0 0 48 77" fill="none" xmlns="http://www.w3.org/2000/svg">
<path fill-rule="evenodd" clip-rule="evenodd" d="M24.3594 76.9402C28.5819 62.1548 36.9849 65.0549 44.1504 59.2164C48.8063 55.7861 48.61 51.7069 45.9814 47.3138L37.0023 33.5438C49.9166 34.5767 49.4156 19.5076 40.9979 19.523C45.0057 12.7337 37.4575 4.87879 31.6855 9.48109C31.6517 2.62617 27.6567 0.0405093 24.1526 0.059676C19.8629 0.090496 16.1336 3.97642 16.4468 9.53706C10.6435 4.99716 3.75712 12.1382 6.96098 19.523C-1.22833 19.8733 -1.52503 34.0684 10.6262 33.5928L3.1476 46.1514C-0.903198 52.501 0.355211 56.9983 5.90154 60.3039C18.8404 66.4104 20.3342 65.9309 24.3595 76.9402H24.3594Z" fill="#1C1A1A"/>
<path fill-rule="evenodd" clip-rule="evenodd" d="M24.0606 2.29004C20.6345 2.29004 18.5938 5.57935 18.6061 9.2365C18.6413 12.4392 21.2899 15.8114 21.6091 18.8388C21.8996 21.7039 21.4336 24.0635 20.1781 24.2008C19.0615 24.3423 17.2107 22.3224 17.2107 16.7655C17.2107 12.4931 14.1316 8.77757 10.7805 10.9249C8.39167 12.4528 7.48484 15.8341 9.24591 18.9968C10.3107 20.8817 12.5413 21.9854 13.8628 23.5344C15.3844 25.3423 15.625 27.7912 14.7185 28.2987C13.7424 28.8613 11.2699 26.5576 9.75116 23.5865C8.77806 21.6694 5.70629 20.8599 4.24147 23.2381C1.455 27.8058 5.51781 30.8844 8.18541 31.2512C12.2447 31.8377 17.249 30.3589 24.0603 30.3589C30.8966 30.3589 35.9213 31.8377 39.9829 31.2512C42.6488 30.8844 46.7142 27.8058 43.9215 23.2381C42.4568 20.8601 39.388 21.6694 38.4108 23.5865C36.8985 26.5576 34.4198 28.8612 33.4282 28.2987C32.5217 27.7914 32.784 25.3425 34.2984 23.5344C35.6237 21.9854 37.8353 20.8819 38.8994 18.9968C40.6781 15.8341 39.7734 12.4527 37.3834 10.9249C34.0184 8.77757 30.9535 12.4933 30.9535 16.7655C30.9535 22.3223 29.0853 24.3423 27.9681 24.2008C26.7325 24.0634 26.2465 21.7039 26.5423 18.8388C26.8566 15.8114 29.5238 12.4392 29.5405 9.2365C29.5755 5.57935 27.5342 2.29004 24.0604 2.29004H24.0606Z" fill="#1C1A1A"/>
<path d="M33.9187 32.8722C34.456 33.5072 44.2208 48.3481 44.9341 50.2633C45.6514 52.1632 45.8401 53.8692 45.0927 55.0513C44.5894 55.877 43.9405 56.5786 43.1916 57.1906C42.4585 57.8283 41.6245 58.3519 40.7158 58.8469C39.8087 59.3386 38.8326 59.7989 37.84 60.2356C36.8272 60.6599 35.7995 61.0963 34.7559 61.5527C33.7264 62.0298 32.6787 62.5238 31.6677 63.083C30.6559 63.6473 29.6656 64.2631 28.7553 65.0029C27.8323 65.7412 26.982 66.5853 26.2102 67.5864C25.4591 68.5725 24.7795 69.6958 24.2565 71.0168C23.7139 69.6958 23.0521 68.5727 22.3053 67.5864C21.5725 66.5851 20.717 65.7412 19.8102 65.0029C18.9034 64.2631 17.9275 63.6473 16.9175 63.083C15.9053 62.5238 14.862 62.0296 13.8296 61.5527C12.7857 61.0963 11.7382 60.6599 10.7463 60.2203C9.73793 59.7989 8.75662 59.3386 7.85298 58.8469C6.94554 58.3519 6.11212 57.8281 5.35927 57.1906C4.62967 56.5786 3.98047 55.877 3.46079 55.0513C2.7324 53.8692 2.85005 52.1632 3.49134 50.2482C4.14023 48.3481 13.1865 33.5932 13.6922 32.9792C13.8296 32.819 18.9582 31.8711 24.0486 31.8711C29.1544 31.8711 33.776 32.7321 33.9187 32.8724V32.8722Z" fill="#E0DBBA"/>
<path d="M28.8945 36.1237C26.8349 37.6727 25.0404 39.6955 23.8715 42.5619C22.6865 39.6955 20.925 37.6727 18.8672 36.1424C20.6456 36.7932 22.1828 35.2131 23.8715 35.2131C25.5477 35.1924 27.3441 36.793 28.8945 36.1237Z" fill="#1C1A1A"/>
<path fill-rule="evenodd" clip-rule="evenodd" d="M16.7801 56.0142C16.6721 55.9643 16.5701 55.9229 16.3942 55.9229C16.1665 55.9229 16.0124 56.031 15.851 56.1703V55.9802H14.9297V59.1622H15.851V57.1029C15.8861 56.874 16.0288 56.7899 16.199 56.7899C16.376 56.7899 16.4793 56.8606 16.6052 56.9809L16.7801 56.0142Z" fill="#1C1A1A"/>
<path fill-rule="evenodd" clip-rule="evenodd" d="M18.1895 55.9229C17.4201 55.9229 17.0039 56.5075 17.0039 57.595C17.0039 58.5997 17.4028 59.2298 18.1895 59.2298V58.4927C18.0003 58.4785 17.8943 58.3184 17.8767 57.842H18.1895V57.2253H17.8767C17.8943 56.7726 17.9794 56.6286 18.1737 56.6286H18.1895V55.9229ZM18.1895 59.2298C18.7305 59.2298 19.0282 58.969 19.2895 58.5844L18.7481 58.1394C18.5558 58.424 18.418 58.4927 18.2421 58.4927H18.1895V59.2298ZM19.3408 57.8418V57.6166C19.3408 56.4925 18.9413 55.9229 18.1895 55.9229V56.6286C18.4003 56.6286 18.4853 56.8054 18.5041 57.2253H18.1895V57.842H19.3408V57.8418Z" fill="#1C1A1A"/>
<path fill-rule="evenodd" clip-rule="evenodd" d="M20.9267 56.0001C20.8416 56.0316 20.7552 56.1009 20.6646 56.1706V55.9804H19.7578V60.3237L20.6646 59.9702V58.9877C20.7552 59.0564 20.8416 59.113 20.9267 59.1623V58.44C20.8192 58.44 20.7552 58.3903 20.6646 58.3343V56.8248C20.7552 56.7528 20.8192 56.7029 20.9267 56.7029V56.0003V56.0001ZM22.0953 57.5638C22.0953 56.4551 21.7983 55.9229 21.2556 55.9229C21.1365 55.9229 21.0288 55.9448 20.9267 56.0001V56.7027H20.9416C21.1185 56.7027 21.1878 56.8246 21.1878 57.5796C21.1878 58.3343 21.1185 58.44 20.9416 58.44H20.9267V59.1623C21.0288 59.197 21.1187 59.2298 21.2395 59.2298C21.7983 59.2298 22.0953 58.706 22.0953 57.564V57.5638Z" fill="#1C1A1A"/>
<path fill-rule="evenodd" clip-rule="evenodd" d="M24.8501 59.1622V55.9796H23.9265V58.3181C23.8391 58.3897 23.7724 58.4238 23.6481 58.4238C23.4926 58.4238 23.4194 58.3181 23.4194 58.0702V55.9795H22.5V58.2295C22.5 58.9189 22.763 59.2295 23.2816 59.2295C23.5797 59.2295 23.7725 59.1288 23.9267 58.9873V59.1619H24.8502L24.8501 59.1622Z" fill="#1C1A1A"/>
<path fill-rule="evenodd" clip-rule="evenodd" d="M26.5256 56C26.4399 56.0314 26.35 56.1007 26.2658 56.1705V54.7471L25.3398 55.1174V59.162H26.2658V58.9873C26.35 59.056 26.4399 59.1126 26.5256 59.162V58.4396C26.4197 58.4396 26.3342 58.39 26.2658 58.334V56.8244C26.35 56.7525 26.4195 56.7025 26.5256 56.7025V56ZM27.713 57.5636C27.713 56.4549 27.3987 55.9227 26.8589 55.9227C26.7347 55.9227 26.6303 55.9446 26.5256 56V56.7025H26.5446C26.6993 56.7025 26.7893 56.8244 26.7893 57.5794C26.7893 58.3341 26.6992 58.4398 26.5446 58.4398H26.5256V59.1621C26.6136 59.1968 26.7173 59.2296 26.8381 59.2296C27.3985 59.2296 27.713 58.7058 27.713 57.5638V57.5636Z" fill="#1C1A1A"/>
<path fill-rule="evenodd" clip-rule="evenodd" d="M29.0714 59.1621V54.7471L28.1484 55.1169V59.1621H29.0714Z" fill="#1C1A1A"/>
<path fill-rule="evenodd" clip-rule="evenodd" d="M30.5176 55.9807H29.595V59.1633H30.5176V55.9807ZM30.5702 55.2041C30.5702 54.9235 30.364 54.7324 30.0458 54.7324C29.7544 54.7324 29.5273 54.9233 29.5273 55.2041C29.5273 55.5049 29.7544 55.699 30.0458 55.699C30.364 55.699 30.5702 55.5048 30.5702 55.2041Z" fill="#1C1A1A"/>
<path fill-rule="evenodd" clip-rule="evenodd" d="M33.2174 58.3015L32.5401 57.9513C32.4022 58.3337 32.3124 58.4398 32.1756 58.4398C31.9482 58.4398 31.8549 58.2296 31.8549 57.5792C31.8549 56.9281 31.9482 56.7026 32.1532 56.7026C32.3302 56.7026 32.3796 56.8243 32.4714 57.1902L33.2051 56.8409C33.0291 56.297 32.7453 55.9229 32.1532 55.9229C31.3539 55.9229 30.9336 56.4715 30.9336 57.5792C30.9336 58.7246 31.4056 59.2296 32.1333 59.2296C32.6792 59.2296 32.995 58.9306 33.2174 58.3015Z" fill="#1C1A1A"/>
<path fill-rule="evenodd" clip-rule="evenodd" d="M13.1341 52.2534L11.9523 51.637C11.7375 52.3188 11.5831 52.5009 11.3397 52.5009C10.9564 52.5009 10.7956 52.1256 10.7956 51.036C10.7956 49.9125 10.935 49.5235 11.3039 49.5235C11.6019 49.5235 11.7018 49.7372 11.8453 50.3696L13.0996 49.776C12.8041 48.8206 12.3139 48.2061 11.3203 48.2061C9.92508 48.2061 9.24609 49.1395 9.24609 51.036C9.24609 52.9718 10.0328 53.8325 11.2865 53.8325C12.2113 53.8325 12.7331 53.3461 13.134 52.2534H13.1341Z" fill="#1C1A1A"/>
<path fill-rule="evenodd" clip-rule="evenodd" d="M17.79 53.7107V49.8944C17.79 48.7321 17.3202 48.2064 16.4298 48.2064C15.9057 48.2064 15.6144 48.3819 15.3304 48.6271V46.2178L13.7617 46.8351V53.7109H15.3304V49.7759C15.471 49.6492 15.6257 49.5609 15.819 49.5609C16.0826 49.5609 16.2006 49.7524 16.2006 50.163V53.7109H17.79V53.7107Z" fill="#1C1A1A"/>
<path fill-rule="evenodd" clip-rule="evenodd" d="M20.1967 48.3117H18.6284V53.7117H20.1967V48.3117ZM20.2991 46.9934C20.2991 46.5207 19.935 46.1816 19.4099 46.1816C18.8904 46.1816 18.5195 46.5207 18.5195 46.9934C18.5195 47.4839 18.8904 47.8045 19.4099 47.8045C19.935 47.8045 20.2991 47.4839 20.2991 46.9934Z" fill="#1C1A1A"/>
<path fill-rule="evenodd" clip-rule="evenodd" d="M24.7798 52.2534L23.6115 51.637C23.4008 52.3188 23.2467 52.5009 22.9843 52.5009C22.6192 52.5009 22.4651 52.1256 22.4651 51.036C22.4651 49.9125 22.5972 49.5235 22.9664 49.5235C23.2654 49.5235 23.3653 49.7372 23.5097 50.3696L24.7637 49.776C24.4656 48.8206 23.9813 48.2061 22.9843 48.2061C21.6048 48.2061 20.9102 49.1395 20.9102 51.036C20.9102 52.9718 21.6963 53.8325 22.9515 53.8325C23.8737 53.8325 24.3978 53.3461 24.7799 52.2534H24.7798Z" fill="#1C1A1A"/>
<path fill-rule="evenodd" clip-rule="evenodd" d="M29.5936 53.7109L28.4629 50.0005L29.5582 48.3112H27.8839L27.6568 48.7156C27.3645 49.2455 27.101 49.7866 26.9421 50.1058C26.9821 49.7375 26.995 49.1211 26.995 48.7022V46.2178L25.4258 46.8351V53.7109H26.995V51.9497L27.312 51.4093L27.9353 53.7109H29.5938H29.5936Z" fill="#1C1A1A"/>
<path fill-rule="evenodd" clip-rule="evenodd" d="M31.9986 48.2062C30.7093 48.2062 29.9922 49.1897 29.9922 51.0355C29.9922 52.7607 30.6739 53.832 31.9986 53.832V52.5886C31.7019 52.5517 31.4938 52.2721 31.4579 51.4767H31.9986V50.4443H31.4579C31.5087 49.6491 31.6681 49.3984 31.981 49.3984H31.9986V48.2062ZM31.9986 53.832H32.0159C32.924 53.832 33.4298 53.3924 33.8854 52.726L32.9583 51.9874C32.6262 52.4445 32.4025 52.5886 32.0858 52.5886H31.9987V53.832H31.9986ZM33.9715 51.4767V51.0887C33.9715 49.1561 33.293 48.2061 32.0158 48.2061H31.9984V49.3982C32.3652 49.3982 32.5067 49.7032 32.5396 50.4441H31.9984V51.4765H33.9714L33.9715 51.4767Z" fill="#1C1A1A"/>
<path fill-rule="evenodd" clip-rule="evenodd" d="M38.6924 53.7114V49.8951C38.6924 48.7328 38.2206 48.207 37.3339 48.207C36.826 48.207 36.5134 48.3826 36.235 48.6278V48.3119H34.6641V53.7115H36.235V49.7765C36.3738 49.6499 36.5293 49.5616 36.7224 49.5616C36.9837 49.5616 37.1269 49.7531 37.1269 50.1637V53.7115H38.6925L38.6924 53.7114Z" fill="#1C1A1A"/>
</svg>

<svg xmlns="http://www.w3.org/2000/svg" width="48" height="77" fill="none"><path fill="#1C1A1A" fill-rule="evenodd" d="M24.36 76.94c4.222-14.785 12.625-11.885 19.79-17.724 4.656-3.43 4.46-7.51 1.831-11.902l-8.979-13.77c12.915 1.033 12.414-14.036 3.996-14.021 4.008-6.79-3.54-14.644-9.312-10.042-.034-6.855-4.03-9.44-7.533-9.421-4.29.03-8.02 3.916-7.706 9.477-5.803-4.54-12.69 2.601-9.486 9.986-8.19.35-8.486 14.545 3.665 14.07L3.148 46.15C-.903 52.501.355 56.998 5.902 60.304 18.84 66.41 20.334 65.93 24.36 76.94" clip-rule="evenodd"/><path fill="#1C1A1A" fill-rule="evenodd" d="M24.06 2.29c-3.425 0-5.466 3.29-5.454 6.947.035 3.202 2.684 6.574 3.003 9.602.29 2.865-.175 5.225-1.43 5.362-1.117.141-2.968-1.879-2.968-7.436 0-4.272-3.08-7.987-6.43-5.84-2.39 1.528-3.296 4.91-1.535 8.072 1.065 1.885 3.295 2.988 4.617 4.537 1.521 1.808 1.762 4.257.856 4.765-.977.562-3.45-1.741-4.968-4.712-.973-1.918-4.045-2.727-5.51-.349-2.786 4.568 1.277 7.646 3.944 8.013 4.06.587 9.064-.892 15.875-.892 6.837 0 11.861 1.479 15.923.892 2.666-.367 6.731-3.445 3.939-8.013-1.465-2.378-4.534-1.569-5.511.349-1.513 2.97-3.991 5.274-4.983 4.712-.906-.508-.644-2.956.87-4.765 1.326-1.549 3.537-2.652 4.601-4.537 1.78-3.163.874-6.544-1.516-8.072-3.365-2.147-6.43 1.568-6.43 5.84 0 5.557-1.868 7.577-2.985 7.436-1.235-.138-1.721-2.497-1.426-5.362.315-3.028 2.982-6.4 2.999-9.602.035-3.658-2.007-6.947-5.48-6.947" clip-rule="evenodd"/><path fill="#E0DBBA" d="M33.919 32.872c.537.635 10.302 15.476 11.015 17.391.717 1.9.906 3.606.159 4.788-.504.826-1.153 1.528-1.901 2.14-.733.637-1.568 1.16-2.476 1.656-.907.492-1.883.952-2.876 1.389-1.013.424-2.04.86-3.084 1.317-1.03.477-2.077.97-3.088 1.53-1.012.564-2.002 1.18-2.913 1.92a15 15 0 0 0-2.545 2.583c-.75.987-1.43 2.11-1.954 3.43a15.2 15.2 0 0 0-1.95-3.43c-.733-1-1.589-1.845-2.496-2.583-.907-.74-1.883-1.356-2.892-1.92-1.013-.56-2.056-1.053-3.088-1.53-1.044-.457-2.092-.893-3.084-1.333a32 32 0 0 1-2.893-1.373c-.907-.495-1.74-1.019-2.494-1.656a9.2 9.2 0 0 1-1.898-2.14c-.729-1.182-.61-2.888.03-4.803.65-1.9 9.696-16.655 10.201-17.269.138-.16 5.266-1.108 10.357-1.108 5.105 0 9.727.861 9.87 1.001"/><path fill="#1C1A1A" d="M28.895 36.124c-2.06 1.549-3.855 3.572-5.023 6.438-1.186-2.866-2.947-4.89-5.005-6.42 1.779.651 3.316-.929 5.005-.929 1.676-.02 3.472 1.58 5.023.91"/><path fill="#1C1A1A" fill-rule="evenodd" d="M16.78 56.014a.8.8 0 0 0-.386-.091c-.227 0-.382.108-.543.247v-.19h-.921v3.182h.921v-2.06c.035-.228.178-.312.348-.312.177 0 .28.07.406.19zM18.19 55.923c-.77 0-1.186.584-1.186 1.672 0 1.005.399 1.635 1.185 1.635v-.737c-.189-.015-.295-.175-.312-.651h.313v-.617h-.313c.017-.452.102-.596.297-.596h.015zm0 3.307c.54 0 .838-.261 1.1-.646l-.542-.445c-.192.285-.33.354-.506.354h-.053zm1.15-1.388v-.225c0-1.124-.399-1.694-1.15-1.694v.706c.21 0 .295.176.314.596h-.315v.617zM20.927 56c-.085.032-.172.1-.262.17v-.19h-.907v4.344l.907-.354v-.982q.135.101.262.174v-.722c-.108 0-.172-.05-.262-.106v-1.51c.09-.071.154-.121.262-.121zm1.168 1.564c0-1.109-.297-1.641-.84-1.641a.7.7 0 0 0-.328.077v.703h.015c.177 0 .246.122.246.877 0 .754-.07.86-.246.86h-.015v.722c.102.035.192.068.313.068.558 0 .855-.524.855-1.666M24.85 59.162V55.98h-.924v2.338a.38.38 0 0 1-.278.106c-.155 0-.229-.106-.229-.354v-2.09H22.5v2.25c0 .689.263 1 .782 1 .298 0 .49-.101.645-.243v.175zM26.526 56a1 1 0 0 0-.26.17v-1.423l-.926.37v4.045h.926v-.175c.084.069.174.126.26.175v-.722a.4.4 0 0 1-.26-.106v-1.51c.084-.072.154-.121.26-.121zm1.187 1.564c0-1.11-.314-1.641-.854-1.641a.7.7 0 0 0-.333.077v.703h.019c.154 0 .244.121.244.876s-.09.86-.244.86h-.02v.723a.8.8 0 0 0 .313.068c.56 0 .875-.524.875-1.666M29.071 59.162v-4.415l-.923.37v4.045zM30.518 55.98h-.923v3.183h.923zm.052-.776c0-.28-.206-.472-.524-.472-.292 0-.519.191-.519.472 0 .3.227.495.519.495.318 0 .524-.194.524-.495M33.217 58.302l-.677-.35c-.138.382-.228.488-.364.488-.228 0-.321-.21-.321-.86 0-.652.093-.877.298-.877.177 0 .227.121.318.487l.734-.35c-.176-.543-.46-.917-1.052-.917-.8 0-1.22.548-1.22 1.656 0 1.146.473 1.65 1.2 1.65.546 0 .862-.298 1.084-.928M13.134 52.253l-1.182-.616c-.214.682-.369.864-.612.864-.384 0-.544-.375-.544-1.465 0-1.123.139-1.513.508-1.513.298 0 .398.214.541.847l1.255-.594c-.296-.955-.786-1.57-1.78-1.57-1.395 0-2.074.933-2.074 2.83 0 1.936.787 2.797 2.04 2.797.925 0 1.447-.487 1.848-1.58M17.79 53.71v-3.816c0-1.162-.47-1.688-1.36-1.688-.524 0-.816.176-1.1.421v-2.41l-1.568.618v6.876h1.568v-3.935c.141-.127.296-.215.489-.215.264 0 .382.191.382.602v3.548zM20.197 48.312h-1.569v5.4h1.569zm.102-1.319c0-.472-.364-.811-.89-.811-.519 0-.89.339-.89.811 0 .49.371.811.89.811.526 0 .89-.32.89-.81M24.78 52.253l-1.169-.616c-.21.682-.364.864-.627.864-.365 0-.519-.375-.519-1.465 0-1.123.132-1.513.501-1.513.3 0 .4.214.544.847l1.254-.594c-.298-.955-.783-1.57-1.78-1.57-1.38 0-2.074.933-2.074 2.83 0 1.936.786 2.797 2.041 2.797.923 0 1.447-.487 1.829-1.58M29.594 53.71 28.463 50l1.095-1.689h-1.674l-.227.405c-.293.53-.556 1.07-.715 1.39a16 16 0 0 0 .053-1.404v-2.484l-1.57.617v6.876h1.57V51.95l.317-.54.623 2.3zM31.999 48.206c-1.29 0-2.007.984-2.007 2.83 0 1.725.682 2.796 2.007 2.796v-1.243c-.297-.037-.505-.317-.541-1.112h.54v-1.033h-.54c.05-.795.21-1.046.523-1.046h.018zm0 5.626h.017c.908 0 1.414-.44 1.87-1.106l-.928-.739c-.332.457-.555.602-.872.602h-.087zm1.973-2.355v-.388c0-1.933-.679-2.883-1.956-2.883h-.018v1.192c.367 0 .509.305.542 1.046h-.542v1.032zM38.692 53.711v-3.816c0-1.162-.471-1.688-1.358-1.688-.508 0-.82.176-1.099.42v-.315h-1.57v5.4h1.57v-3.936c.139-.126.294-.214.487-.214.262 0 .405.191.405.602v3.547z" clip-rule="evenodd"/></svg>
